X:1
T:Title
%%score { 1 | 2 }
L:1/8
Q:1/4=100
M:4/4
K:Bb
V:1 treble nm="Grand Piano"
V:2 bass 
V:1
 [DF]2 [Fd]2 [Fd]2 [Fc][FB] | [EG]2 [GB]2 [EG]2 [DF]2 | F2 A2 A3 G | [EG]2 [DF]2 [DB]4 | %4
w: John~R.~Sweney * * * *||||
 [DF]2 [Fd]2 [Fd]2 [Fc][B,FB] | [B,EG]2 [B,GB]2 [B,EG]2 [B,DF]2 | [A,CF]2 [CFA]2 [CFc]3 [DFB] | %7
w: |||
 [CFA]2 [B,=EG]2 F4 | F2 ee eed[Fc] | [FB]2 c2 d4 | G2 [GB][GB] [GB][GB][FA][EG] | %11
w: ||||
 [EG]2 [DF]2 [DF]4 | F2 AA AAGF | [FB]2 c2 d3 d | [Ge][Ge] [Ge]2 ddBB | c2 A2 [DB]4 |] %16
w: |||||
V:2
 [B,,B,]2 [B,,B,]2 [B,,B,]2 [C,A,][D,B,] | [E,B,]2 [E,B,]2 [B,,B,]2 [B,,B,]2 | %2
 [F,A,C]2 [F,CE]2 [F,CE]3 [F,CE] | [B,,B,]2 [B,,B,]2 [B,,F,]4 | %4
 [B,,B,]2 [B,,B,]2 [B,,B,]2 [C,A,]D, | E,2 E,2 B,,2 B,,2 | F,2 F,2 A,,3 B,, | C,2 C,2 [F,A,]4 | %8
 [F,A,]2[K:treble] [A,CF][A,CF] [A,CF][A,CF][F,B,F][K:bass][E,A,] | %9
 [D,B,]2[K:treble] [F,A,F]2 [B,F]4 | [E,B,E]2 [E,E][E,E] [E,E][E,E][E,B,][E,B,] | %11
 [B,,B,]2 [B,,B,]2 [B,,B,]4 | [F,A,C]2 [F,CE][F,CE] [F,CE][F,CE][F,B,E][E,A,] | %13
 [D,B,]2[K:treble] [F,A,F]2 [B,F]3 [B,F] | [E,B,][E,B,] [E,B,]2 [F,B,F][F,B,F][F,DF][F,DF] | %15
 [F,EF]2 [F,CE]2 [B,,B,]4 |] %16

